X:1
T:Quando benigna
T:Quando benigna
T:Benedetto Pallavicino
T:Source: Harmonia celeste---Anversa---P.Phalesio & G.Bellero---1583. Editor: André Vierendeels (22/11/13).
C:Benedetto Pallavicino
%%score [ 1 [ 2 3 ] 4 ]
L:1/8
Q:1/4=120
M:2/2
K:F
V:1 treble nm="Canto" snm="C"
V:2 treble-8 nm="Tenor 1" snm="T 1"
V:3 treble-8 nm="Tenor 2" snm="T 2"
V:4 bass nm="Basso" snm="B"
V:1
 A8 | B4 B4 | A4 G4 | A8 | =B4 c4 | c2 c2 A2 A2 | G4 G4 | G2 F2 E4 | ^F4 G4 | A4 B2 G2- | %10
w: Quan-|do be-|ni- gna|stel-|la, de-|gno mi fe mi-|rar vo-|stra bel- ta-|de, la|ca- ra li-|
 G2 G2 ^F4 | G4 z2 B2 | B2 B2 c4 | d8 | z4 d4- | d2 c2 B4 | A4 B4 | A4 z2 d2- | d2 c4 B2- | %19
w: * ber- ta-|de a'un|vo- stro sguar-|do|mi|_ si fe-|ri- bel-|la, mi-|* si fe-|
 B2 A2 A4 | B4 B4- | B2 B2 A4 | G4 E4 | F4 z2 d2- | d2 B2 d4 | c2 B2 A2 G2- | G2 F4 G2 | A8 | %28
w: * ri- bel-|la, e|_ mi nac-|que nel|cor, e|_ mi nac-|que nel cor fer-|* mo de-|si-|
 B4 z2 B2- | B2 A2 G4 | F2 G2 E4 | ^F8 | z8 | A4 d4 | =B4 c3 c | A3 A d4 | G4 c4- | c4 A4 | A4 d4 | %39
w: o, di|_ non es-|ser piu mi-|o,||an- chor|che tut- t'il|mio pen- sie-|r'in- ten-|* to,|per far-|
 d2 d2 G4 | G8 | ^F8 | z4 E4 | G2 A2 F2 F2 | G4 A4 | G4 B2 B2 | A2 d2 B2 B2 | _e2 d2 c4 | B4 B4 | %49
w: vi di me|do-|no,|mo-|strom mi nel bel|vi- so,|tut- to quel|ben che- sta nel|pa- ra- di-|so, mo-|
 A2 G2 F2 D2 | F4 F4 | E4 D2 D2 | D2 A2 G2 A2 | B2 c2 d4 | d8 |] %55
w: strom mi nel bel|vi- so,|tut- to quel|ben che sta nel|pa- ra- di-|so.|
V:2
 ^f8 | g4 g4 | ^f4 g2 g2- | g2 ^fe f4 | g4 a4 | a2 a2 f2 f2 | e4 d4 | e2 d2 ^c4 | d4 d4 | %9
w: Quan-|do be-|ni- gna stel-||la, de-|gno mi fe mi-|rar vo-|stra bel- ta-|de, la|
 f4 f2 _e2- | e2 _e2 d4 | d4 z2 g2 | g2 b2 a4 | b4 f4- | f2 e2 g4 | z2 g4 f2- | f2 e2 f4 | f4 d4 | %18
w: ca- ra li-|* ber- ta-|de a'un|vo- stro sguar-|do mi|_ si fe,|mi- si|_ fe- ri-|bel- la,|
 g8 | f8 | f4 d4- | d2 d2 c4 | c2 B2 A4 | z4 f4- | f2 d2 f4 | e2 d2 c2 e2- | e2 d4 e2 | ^f2 g4 f2 | %28
w: ri-|bel-|la, e|_ mi nac-|que nel cor,|e|_ mi nac-|que quel cor fer-|* mo de-|si- * *|
 g4 z2 d2- | d2 d2 d4 | d2 d2 ^c4 | d4 d4 | d4 c4 | c3 c f3 f | d3 d e3 e | c3 c f4- | f2 e2 e4 | %37
w: o, di|_ non es-|ser piu mi-|o, an-|chor che|tut- t'il mio pen-|sier, che tut- t'il|mio pen- sie-|* r'in- ten-|
 f4 c4 | f4 f2 f2 | d4 d4- | d2 cB c4 | d8 | z4 c4 | d2 f2 d2 f2 | e4 f4 | e4 g2 g2 | f2 b2 g2 f2 | %47
w: to, per|far- vi di|me do-||no,|mo-|strom mi nel bel|vi- so,|tut- to quel|ben che sta nel|
 g2 b2 a4 | b4 f4 | f2 d2 d3 B | c4 d4 | c4 B2 B2 | A2 f2 d2 d2 | d2 g2 ^f4 | g8 |] %55
w: pa- ra- di-|so, mo-|strom mi nel bel|vi- so,|tut- to quel|ben che sta nel|pa- ra- di-|so.|
V:3
 d8 | G4 G4 | d4 _e4 | d8 | G4 F4 | F2 F2 F2 F2 | c4 =B4 | c2 d2 A4 | D4 z2 B2 | c4 d2 c2- | %10
w: Quan-|do be-|ni- gna|stel-|la, de-|gno mi fe mi-|rar vo-|stra bel- ta-|de, la|ca- ra li-|
 c2 c2 A4 | =B4 z2 d2 | _e2 d2 f4 | f4 d4 | c4 B4 | A2 GA Bc d2- | d2 ^c2 d2 d2- | d2 c4 B2- | %18
w: * ber- ta-|de a'un|vo- stro sguar-|do mi|si fe-|ri- bel- * * * *|* * la, mi|_ si fe-|
 B2 A2 G4 | c8 | z4 f4- | f2 d2 f4 | e2 d2 c4 | A6 A2 | B4 B2 B2 | G4 c4 | A4 B4 | A8 | G4 z2 G2- | %29
w: * ri- bel-|la,|e|_ mi nac-|que nel cor,|e mi|nac- que nel|cor fer-|mo de-|si-|o, di|
 G2 ^F2 G4 | B2 B2 A4 | D4 A4 | B4 G4 | A3 A A3 A | G2 G2 G4 | A4 F4 | c8 | A4 A4 | d8 | B6 A2 | %40
w: _ non es-|ser piu mi-|o, an-|chor che|tut- t'il mio pen-|sie- r'in- ten-|to, per-|far-|vi di|me|do- *|
 G8 | A8 | z4 A4 | G2 F2 B2 d2 | c4 F4 | c4 G2 G2 | d2 B2 _e2 d2 | c2 B2 f4 | B4 d4 | c2 B2 A2 B2 | %50
w: |no,|mo-|strom mi nel bel|vi- so,|tut- to quel|ben che sta nel|pa- ra- di-|so, mo-|strom mi nel bel|
 A4 B4 | G4 G2 G2 | F2 F2 B2 A2 | G2 G2 A4 | =B8 |] %55
w: vi- so,|tut- to quel|ben che sta nel|pa- ra- di-|so.|
V:4
 z8 | z8 | z8 | z8 | z8 | z8 | z8 | z8 | z4 G,4 | F,4 B,,2 C,2- | C,2 C,2 D,4 | G,,4 G,4 | %12
w: ||||||||La|ca- ra li-|* ber- ta-|de a'un|
 _E,2 G,2 F,4 | B,,4 B,4 | A,4 G,4 | F,2 _E,4 D,2 | z4 B,,4 | F,4 G,4 | _E,8 | F,8 | B,,4 B,,4- | %21
w: vo- stro sguar-|do mi|si fe-|ri- bel- la,|mi-|si fe-|ri-|bel-|la, e|
 B,,2 B,,2 F,,4 | C,2 G,,2 A,,4 | D,8 | B,,8 | C,8 | D,8- | D,8 | G,,8 | z8 | z8 | z4 D,4 | %32
w: _ mi nac-|que nel cor|fer-|mo|de-|si-||o,|||an-|
 G,4 E,4 | F,3 F, D,3 D, | G,4 C,4 | F,4 B,,4 | z4 C,4 | F,8 | D,4 D,4 | G,8 | _E,8 | D,8 | z8 | %43
w: chor che|tut- t'il mio pen-|sie- r'in-|ten- to,|per|far-|vi di|me|do-|no,||
 z8 | z8 | z8 | z8 | z8 | z4 B,4 | F,2 G,2 D,2 G,2 | F,4 B,,4 | C,4 G,,2 G,,2 | D,2 D,2 G,2 ^F,2 | %53
w: |||||mo-|strom mi nel bel|vi- so,|tut- to quel|ben che sta nel|
 G,2 _E,2 D,4 | G,8 |] %55
w: pa- ra- di-|so.|

